src/gen3-ui-component/images/icons/link.svg

<?xml version="1.0" encoding="UTF-8"?>
<svg width="20px" height="18px" viewBox="0 0 20 18" version="1.1" xmlns="http://www.w3.org/2000/svg" xmlns:xlink="http://www.w3.org/1999/xlink">
    <!-- Generator: Sketch 49.3 (51167) - http://www.bohemiancoding.com/sketch -->
    <title>link</title>
    <desc>Created with Sketch.</desc>
    <defs></defs>
    <g id="Welcome" stroke="none" stroke-width="1" fill="none" fill-rule="evenodd">
        <g id="3-submission-1440" transform="translate(-1250.000000, -814.000000)" fill="#000000" fill-rule="nonzero">
            <g id="Group-5" transform="translate(1180.000000, 814.000000)">
                <g id="download">
                    <g id="Group-4">
                        <g id="link" transform="translate(70.000000, 0.000000)">
                            <path d="M10.1853659,7.71485588 C9.97383592,7.92638581 9.97383592,8.26563193 10.1853659,8.47716186 C11.0594235,9.35121951 11.0594235,10.7720621 10.1853659,11.6461197 L5.59556541,16.2359202 C4.72150776,17.1099778 3.30066519,17.1099778 2.42660754,16.2359202 L1.73614191,15.5454545 C0.862084257,14.6713969 0.862084257,13.2505543 1.73614191,12.3764967 L6.32594235,7.78669623 C6.53747228,7.5751663 6.53747228,7.23592018 6.32594235,7.02439024 C6.11441242,6.81286031 5.7751663,6.81286031 5.56363636,7.02439024 L0.97383592,11.6141907 C0.347228381,12.2407982 0,13.0749446 0,13.9609756 C0,14.8470067 0.343237251,15.681153 0.97383592,16.3077605 L1.66430155,16.9982262 C2.31086475,17.6447894 3.16097561,17.968071 4.01108647,17.968071 C4.86119734,17.968071 5.7113082,17.6447894 6.3578714,16.9982262 L10.9476718,12.4084257 C12.2407982,11.1152993 12.2407982,9.00798226 10.9476718,7.71485588 C10.740133,7.50332594 10.3968958,7.50332594 10.1853659,7.71485588 Z" id="Shape"></path>
                            <path d="M18.2993348,1.68425721 L17.6088692,0.993791574 C16.3157428,-0.299334812 14.2084257,-0.299334812 12.9152993,0.993791574 L8.32549889,5.58359202 C7.03237251,6.8767184 7.03237251,8.98403548 8.32549889,10.2771619 C8.53702882,10.4886918 8.87627494,10.4886918 9.08780488,10.2771619 C9.29933481,10.0656319 9.29933481,9.72638581 9.08780488,9.51485588 C8.21374723,8.64079823 8.21374723,7.21995565 9.08780488,6.345898 L13.6776053,1.75609756 C14.551663,0.882039911 15.9725055,0.882039911 16.8465632,1.75609756 L17.5370288,2.44656319 C18.4110865,3.32062084 18.4110865,4.74146341 17.5370288,5.61552106 L12.9472284,10.2053215 C12.7356984,10.4168514 12.7356984,10.7560976 12.9472284,10.9676275 C13.0509978,11.0713969 13.1906874,11.1272727 13.3263858,11.1272727 C13.4620843,11.1272727 13.6017738,11.075388 13.7055432,10.9676275 L18.2953437,6.37782705 C18.9219512,5.75121951 19.2691796,4.91707317 19.2691796,4.03104213 C19.2691796,3.14501109 18.9259424,2.31086475 18.2993348,1.68425721 Z" id="Shape"></path>
                        </g>
                    </g>
                </g>
            </g>
        </g>
    </g>
</svg>

<svg width="20" height="18" xmlns="http://www.w3.org/2000/svg"><path d="M10.185 7.715a.537.537 0 0 0 0 .762 2.243 2.243 0 0 1 0 3.17l-4.59 4.589a2.243 2.243 0 0 1-3.168 0l-.69-.69a2.243 2.243 0 0 1 0-3.17l4.589-4.59a.537.537 0 0 0 0-.762.537.537 0 0 0-.762 0l-4.59 4.59A3.3 3.3 0 0 0 0 13.961c0 .886.343 1.72.974 2.347l.69.69c.647.647 1.497.97 2.347.97.85 0 1.7-.323 2.347-.97l4.59-4.59a3.324 3.324 0 0 0 0-4.693.537.537 0 0 0-.763 0Z"/><path d="m18.3 1.684-.691-.69a3.324 3.324 0 0 0-4.694 0l-4.59 4.59a3.324 3.324 0 0 0 0 4.693.537.537 0 0 0 .763 0 .537.537 0 0 0 0-.762 2.243 2.243 0 0 1 0-3.17l4.59-4.589a2.243 2.243 0 0 1 3.169 0l.69.69a2.243 2.243 0 0 1 0 3.17l-4.59 4.59a.542.542 0 0 0 .38.922.526.526 0 0 0 .379-.16l4.59-4.59a3.3 3.3 0 0 0 .973-2.347c0-.886-.343-1.72-.97-2.347Z"/></svg>
